other/inimage.svg

<?xml version="1.0" encoding="UTF-8"?>
<svg enable-background="new 0 0 48.0 48.0" version="1.1" viewBox="0 0 48 48" xml:space="preserve" xmlns="http://www.w3.org/2000/svg">
	<path d="m24 2.25c12.01 0 21.75 9.74 21.75 21.75s-9.74 21.75-21.75 21.75-21.75-9.74-21.75-21.75 9.74-21.75 21.75-21.75z" fill="none" stroke="#fff" stroke-linecap="round" stroke-linejoin="round"/>
	<path d="m16.43 15.4h15.14a1.03 1.03 0 0 1 1.03 1.03v15.14a1.03 1.03 0 0 1-1.03 1.03h-15.14a1.03 1.03 0 0 1-1.03-1.03v-15.14a1.03 1.03 0 0 1 1.03-1.03z" fill="none" stroke="#fff" stroke-linecap="round" stroke-linejoin="round"/>
</svg>

<?xml version="1.0" encoding="utf-8"?>
<svg
	version="1.1"
	xmlns="http://www.w3.org/2000/svg"
	xmlns:xlink="http://www.w3.org/1999/xlink"
	x="0%" y="0%"
	width="100%" height="100%"
	viewBox="0 0 48.0 48.0"
	enable-background="new 0 0 48.0 48.0"
	xml:space="preserve">
	<path
fill="none"
		stroke="#FFFFFF"
		stroke-opacity="1.000"
		stroke-linejoin="round"
		stroke-linecap="round"
		d="M24.00,2.25C36.01,2.25,45.75,11.99,45.75,24.00C45.75,36.01,36.01,45.75,24.00,45.75C11.99,45.75,2.25,36.01,2.25,24.00C2.25,11.99,11.99,2.25,24.00,2.25z"/>
	<path
fill="none"
		stroke="#FFFFFF"
		stroke-opacity="1.000"
		stroke-linejoin="round"
		stroke-linecap="round"
		d="M16.43,15.40L31.57,15.40A1.03 1.03 0 0 1 32.60,16.43L32.60,31.57A1.03 1.03 0 0 1 31.57,32.60L16.43,32.60A1.03 1.03 0 0 1 15.40,31.57L15.40,16.43A1.03 1.03 0 0 1 16.43,15.40z"/>
</svg>
